X:574
T:Speed the Plough
S:Bruce & Emmett's Drummers and Fifers Guide (1862), p. 57
M:2/4
L:1/16
Q:1/4=100
K:A
%%MIDI program 72
%%MIDI transpose 8
%%MIDI ratio 3 1
ME2|ABcd eaec|eaec eaec|dfdB cecA|dcBA GBGE|ABcd eaec|
eaec eaec|dfdB cecA|BAGB A2::Me2|a2ag aAce|a2ga faea|
dbdb caca|dcBA GBGE|ABcd ecea|fd (3(Bcd) ec (3(ABc)|dfdB cecA|BAGB A2:|
